X: 38910
T: Suomalainen Polkka
R: polka
M: 2/4
K: Bminor
|:"Bm"ff/g/ f/e/d/c/|Bd Bd|"A"cF Fc|"Bm"d/c/B/^A/ B/c/d/e/|
"Bm"ff/g/ f/e/d/c/|Bd Bd|"A"cF Fc|"Bm"d/c/B/^A/ B2:|
|:"Bm"dF "A"cF|"Bm"B/c/d/c/ "A"Fc|"Bm"dF "A"cF|"Bm"B/c/d/c/ "A"Fc|
"Bm"dF "A"cF|"Bm"Bd/f/ bb|"A"a/c'/a/g/ fg/a/|"Bm"bb b2:|

